public/assets/images/logo.svg

<svg width="171" height="36" viewBox="0 0 171 36" fill="none" xmlns="http://www.w3.org/2000/svg">
<path fill-rule="evenodd" clip-rule="evenodd" d="M27.8333 18C27.8333 25.0877 22.0877 30.8333 15 30.8333C7.91234 30.8333 2.16666 25.0877 2.16666 18C2.16666 10.9123 7.91234 5.16666 15 5.16666C22.0877 5.16666 27.8333 10.9123 27.8333 18ZM30 18C30 26.2843 23.2843 33 15 33C6.71573 33 0 26.2843 0 18C0 9.71573 6.71573 3 15 3C23.2843 3 30 9.71573 30 18ZM23.2759 11.2759C23.2759 12.1329 22.5812 12.8276 21.7242 12.8276C20.8672 12.8276 20.1725 12.1329 20.1725 11.2759C20.1725 10.4189 20.8672 9.72418 21.7242 9.72418C22.5812 9.72418 23.2759 10.4189 23.2759 11.2759ZM10.4879 19.209C11.1556 21.7009 13.717 23.1797 16.2089 22.512C18.7008 21.8443 20.1796 19.2829 19.5119 16.791C18.8442 14.2991 16.2828 12.8203 13.7909 13.488C11.299 14.1557 9.82015 16.7171 10.4879 19.209ZM8.39503 19.7698C9.37244 23.4175 13.1219 25.5823 16.7696 24.6049C20.4174 23.6274 22.5821 19.878 21.6047 16.2302C20.6273 12.5825 16.8779 10.4177 13.2301 11.3952C9.58236 12.3726 7.41762 16.122 8.39503 19.7698Z" fill="url(#paint0_linear_120_1360)"/>
<path d="M46.7369 28.3958C45.2101 28.3958 43.8623 28.1225 42.6936 27.5759C41.5249 27.0292 40.6107 26.247 39.951 25.2291C39.2912 24.2112 38.9613 22.9859 38.9613 21.5533V20.7616H42.6371V21.5533C42.6371 22.7409 43.0047 23.6362 43.7398 24.2394C44.475 24.8238 45.474 25.116 46.7369 25.116C48.0187 25.116 48.9707 24.8615 49.5927 24.3525C50.2336 23.8436 50.5541 23.1933 50.5541 22.4016C50.5541 21.8549 50.3938 21.4119 50.0734 21.0727C49.7718 20.7334 49.3194 20.46 48.7162 20.2527C48.1318 20.0265 47.4155 19.8191 46.5673 19.6306L45.917 19.4893C44.5598 19.1877 43.3911 18.8107 42.4109 18.3583C41.4495 17.887 40.705 17.2744 40.1772 16.5204C39.6682 15.7664 39.4137 14.7862 39.4137 13.5798C39.4137 12.3734 39.6965 11.3461 40.262 10.4978C40.8463 9.63074 41.6569 8.97099 42.6936 8.5186C43.7492 8.04735 44.9839 7.81172 46.3976 7.81172C47.8114 7.81172 49.0649 8.05677 50.1582 8.54687C51.2704 9.01812 52.1374 9.73442 52.7595 10.6958C53.4004 11.6383 53.7208 12.8258 53.7208 14.2584V15.1066H50.0451V14.2584C50.0451 13.5044 49.8943 12.9012 49.5927 12.4488C49.31 11.9776 48.8953 11.6383 48.3486 11.4309C47.802 11.2047 47.1516 11.0916 46.3976 11.0916C45.2666 11.0916 44.4278 11.3084 43.8812 11.7419C43.3534 12.1566 43.0895 12.7316 43.0895 13.4667C43.0895 13.9568 43.212 14.3715 43.4571 14.7108C43.721 15.0501 44.1074 15.3328 44.6163 15.559C45.1253 15.7852 45.7756 15.9832 46.5673 16.1528L47.2176 16.2942C48.6314 16.5958 49.8566 16.9822 50.8934 17.4535C51.9489 17.9247 52.7689 18.5468 53.3533 19.3196C53.9376 20.0925 54.2298 21.0821 54.2298 22.2885C54.2298 23.4949 53.9188 24.5599 53.2967 25.4835C52.6935 26.3883 51.8264 27.1046 50.6954 27.6324C49.5833 28.1414 48.2638 28.3958 46.7369 28.3958ZM56.2782 28V13.9757H59.7843V15.8135H60.2932C60.5194 15.3234 60.9435 14.8616 61.5656 14.428C62.1876 13.9757 63.1301 13.7495 64.3931 13.7495C65.4864 13.7495 66.4383 14.0039 67.2488 14.5129C68.0782 15.003 68.7191 15.691 69.1715 16.5769C69.6239 17.444 69.8501 18.4619 69.8501 19.6306V28H66.2875V19.9134C66.2875 18.8578 66.0236 18.0661 65.4958 17.5383C64.9868 17.0105 64.2517 16.7466 63.2903 16.7466C62.1971 16.7466 61.3488 17.1142 60.7456 17.8493C60.1424 18.5656 59.8408 19.5741 59.8408 20.8747V28H56.2782ZM77.2076 28.3958C76.2085 28.3958 75.3131 28.2262 74.5214 27.8869C73.7298 27.5288 73.0983 27.0198 72.627 26.3601C72.1746 25.6815 71.9484 24.8615 71.9484 23.9001C71.9484 22.9388 72.1746 22.1377 72.627 21.4968C73.0983 20.837 73.7392 20.3469 74.5497 20.0265C75.3791 19.6872 76.3216 19.5175 77.3772 19.5175H81.2226V18.7258C81.2226 18.0661 81.0152 17.5289 80.6006 17.1142C80.1859 16.6806 79.5261 16.4638 78.6213 16.4638C77.7354 16.4638 77.0756 16.6712 76.6421 17.0859C76.2085 17.4817 75.9258 18.0001 75.7938 18.641L72.5139 17.5383C72.7401 16.822 73.0983 16.1717 73.5884 15.5873C74.0973 14.9841 74.7665 14.5034 75.5959 14.1453C76.4441 13.7683 77.4715 13.5798 78.6779 13.5798C80.5252 13.5798 81.986 14.0416 83.0605 14.9653C84.1349 15.8889 84.6721 17.2273 84.6721 18.9803V24.2112C84.6721 24.7767 84.936 25.0594 85.4638 25.0594H86.5948V28H84.2197C83.5223 28 82.9474 27.8304 82.495 27.4911C82.0426 27.1518 81.8164 26.6994 81.8164 26.1339V26.1056H81.2791C81.2037 26.3318 81.0341 26.6334 80.7702 27.0104C80.5063 27.3685 80.0916 27.689 79.5261 27.9717C78.9606 28.2545 78.1878 28.3958 77.2076 28.3958ZM77.8296 25.5118C78.8287 25.5118 79.6392 25.2385 80.2613 24.6918C80.9021 24.1263 81.2226 23.3818 81.2226 22.4581V22.1754H77.6317C76.9719 22.1754 76.4536 22.3167 76.0766 22.5995C75.6996 22.8822 75.5111 23.2781 75.5111 23.787C75.5111 24.296 75.709 24.7107 76.1048 25.0311C76.5007 25.3516 77.0756 25.5118 77.8296 25.5118ZM88.3514 33.655V13.9757H91.8575V15.6721H92.3664C92.6869 15.1255 93.1864 14.6448 93.865 14.2301C94.5436 13.7966 95.5144 13.5798 96.7773 13.5798C97.9083 13.5798 98.9545 13.8626 99.9158 14.428C100.877 14.9747 101.65 15.7852 102.234 16.8597C102.819 17.9341 103.111 19.2348 103.111 20.7616V21.214C103.111 22.7409 102.819 24.0415 102.234 25.116C101.65 26.1904 100.877 27.0104 99.9158 27.5759C98.9545 28.1225 97.9083 28.3958 96.7773 28.3958C95.9291 28.3958 95.2128 28.2922 94.6284 28.0848C94.0629 27.8963 93.6011 27.6513 93.243 27.3497C92.9037 27.0292 92.6303 26.7088 92.423 26.3883H91.914V33.655H88.3514ZM95.7029 25.2856C96.815 25.2856 97.7292 24.9369 98.4455 24.2394C99.1807 23.5231 99.5483 22.4864 99.5483 21.1292V20.8465C99.5483 19.4893 99.1807 18.4619 98.4455 17.7645C97.7104 17.0482 96.7962 16.69 95.7029 16.69C94.6096 16.69 93.6954 17.0482 92.9602 17.7645C92.2251 18.4619 91.8575 19.4893 91.8575 20.8465V21.1292C91.8575 22.4864 92.2251 23.5231 92.9602 24.2394C93.6954 24.9369 94.6096 25.2856 95.7029 25.2856ZM104.855 21.0444V20.592C104.855 19.1217 105.148 17.8682 105.732 16.8314C106.316 15.7758 107.089 14.9747 108.05 14.428C109.031 13.8626 110.096 13.5798 111.245 13.5798C112.527 13.5798 113.498 13.806 114.158 14.2584C114.818 14.7108 115.298 15.182 115.6 15.6721H116.109V13.9757H119.615V30.4882C119.615 31.4495 119.332 32.213 118.767 32.7785C118.201 33.3628 117.447 33.655 116.505 33.655H107.117V30.5447H115.26C115.788 30.5447 116.052 30.262 116.052 29.6965V26.049H115.543C115.355 26.3506 115.091 26.6617 114.752 26.9821C114.412 27.2837 113.96 27.5382 113.394 27.7455C112.829 27.9529 112.113 28.0565 111.245 28.0565C110.096 28.0565 109.031 27.7832 108.05 27.2366C107.089 26.6711 106.316 25.87 105.732 24.8332C105.148 23.7776 104.855 22.5147 104.855 21.0444ZM112.263 24.9463C113.357 24.9463 114.271 24.5976 115.006 23.9001C115.741 23.2027 116.109 22.2225 116.109 20.9596V20.6768C116.109 19.395 115.741 18.4148 115.006 17.7362C114.29 17.0388 113.376 16.69 112.263 16.69C111.17 16.69 110.256 17.0388 109.521 17.7362C108.786 18.4148 108.418 19.395 108.418 20.6768V20.9596C108.418 22.2225 108.786 23.2027 109.521 23.9001C110.256 24.5976 111.17 24.9463 112.263 24.9463ZM122.716 28V13.9757H126.223V15.559H126.731C126.939 14.9935 127.278 14.5788 127.749 14.3149C128.239 14.0511 128.805 13.9191 129.446 13.9191H131.142V17.0859H129.389C128.485 17.0859 127.74 17.3309 127.156 17.821C126.571 18.2923 126.279 19.0274 126.279 20.0265V28H122.716ZM137.102 28.3958C136.103 28.3958 135.207 28.2262 134.416 27.8869C133.624 27.5288 132.992 27.0198 132.521 26.3601C132.069 25.6815 131.843 24.8615 131.843 23.9001C131.843 22.9388 132.069 22.1377 132.521 21.4968C132.992 20.837 133.633 20.3469 134.444 20.0265C135.273 19.6872 136.216 19.5175 137.271 19.5175H141.117V18.7258C141.117 18.0661 140.909 17.5289 140.495 17.1142C140.08 16.6806 139.42 16.4638 138.515 16.4638C137.63 16.4638 136.97 16.6712 136.536 17.0859C136.103 17.4817 135.82 18.0001 135.688 18.641L132.408 17.5383C132.634 16.822 132.992 16.1717 133.483 15.5873C133.992 14.9841 134.661 14.5034 135.49 14.1453C136.338 13.7683 137.366 13.5798 138.572 13.5798C140.419 13.5798 141.88 14.0416 142.955 14.9653C144.029 15.8889 144.566 17.2273 144.566 18.9803V24.2112C144.566 24.7767 144.83 25.0594 145.358 25.0594H146.489V28H144.114C143.416 28 142.842 27.8304 142.389 27.4911C141.937 27.1518 141.711 26.6994 141.711 26.1339V26.1056H141.173C141.098 26.3318 140.928 26.6334 140.664 27.0104C140.4 27.3685 139.986 27.689 139.42 27.9717C138.855 28.2545 138.082 28.3958 137.102 28.3958ZM137.724 25.5118C138.723 25.5118 139.533 25.2385 140.155 24.6918C140.796 24.1263 141.117 23.3818 141.117 22.4581V22.1754H137.526C136.866 22.1754 136.348 22.3167 135.971 22.5995C135.594 22.8822 135.405 23.2781 135.405 23.787C135.405 24.296 135.603 24.7107 135.999 25.0311C136.395 25.3516 136.97 25.5118 137.724 25.5118ZM148.246 28V13.9757H151.752V15.5025H152.261C152.506 15.0312 152.911 14.626 153.476 14.2867C154.042 13.9285 154.787 13.7495 155.71 13.7495C156.709 13.7495 157.51 13.9474 158.114 14.3432C158.717 14.7202 159.179 15.2197 159.499 15.8418H160.008C160.328 15.2386 160.781 14.7391 161.365 14.3432C161.949 13.9474 162.779 13.7495 163.853 13.7495C164.72 13.7495 165.503 13.938 166.2 14.3149C166.916 14.6731 167.482 15.2292 167.897 15.9832C168.33 16.7183 168.547 17.6514 168.547 18.7824V28H164.984V19.0369C164.984 18.264 164.786 17.6891 164.391 17.3121C163.995 16.9162 163.439 16.7183 162.722 16.7183C161.912 16.7183 161.28 16.9822 160.828 17.51C160.394 18.019 160.178 18.7541 160.178 19.7155V28H156.615V19.0369C156.615 18.264 156.417 17.6891 156.021 17.3121C155.625 16.9162 155.069 16.7183 154.353 16.7183C153.542 16.7183 152.911 16.9822 152.459 17.51C152.025 18.019 151.808 18.7541 151.808 19.7155V28H148.246Z" fill="white"/>
<defs>
<linearGradient id="paint0_linear_120_1360" x1="15" y1="3" x2="15" y2="33" gradientUnits="userSpaceOnUse">
<stop stop-color="#877EFF"/>
<stop offset="0.461458" stop-color="#685DFF"/>
<stop offset="1" stop-color="#3121FF"/>
</linearGradient>
</defs>
</svg>

<svg version="1.2" xmlns="http://www.w3.org/2000/svg" viewBox="0 0 171 36" width="171" height="36"><defs><linearGradient id="P" gradientUnits="userSpaceOnUse"/><linearGradient id="g1" x2="1" href="#P" gradientTransform="matrix(0,30,-30,0,15,3)"><stop stop-color="#877eff"/><stop offset=".46" stop-color="#685dff"/><stop offset="1" stop-color="#3121ff"/></linearGradient></defs><style>.a{fill:url(#g1)}.b{fill:#fff}</style><path fill-rule="evenodd" class="a" d="m30 18c0 8.3-6.7 15-15 15-8.3 0-15-6.7-15-15 0-8.3 6.7-15 15-15 8.3 0 15 6.7 15 15zm-15-12.8c-7.1 0-12.8 5.7-12.8 12.8 0 7.1 5.7 12.8 12.8 12.8 7.1 0 12.8-5.7 12.8-12.8 0-7.1-5.7-12.8-12.8-12.8zm8.3 6.1c0 0.8-0.7 1.5-1.6 1.5-0.8 0-1.5-0.7-1.5-1.5 0-0.9 0.7-1.6 1.5-1.6 0.9 0 1.6 0.7 1.6 1.6zm-10.1 0.1c3.7-1 7.4 1.2 8.4 4.8 1 3.7-1.2 7.4-4.8 8.4-3.7 1-7.4-1.2-8.4-4.8-1-3.7 1.2-7.4 4.8-8.4zm-2.7 7.8c0.7 2.5 3.2 4 5.7 3.3 2.5-0.7 4-3.2 3.3-5.7-0.7-2.5-3.2-4-5.7-3.3-2.5 0.7-4 3.2-3.3 5.7z"/><path fill-rule="evenodd" class="b" d="m46.7 28.4q-2.3 0-4-0.8-1.8-0.8-2.7-2.4-1-1.5-1-3.6v-0.8h3.6v0.8q0 1.7 1.1 2.6 1.1 0.9 3 0.9 2 0 2.9-0.7 1-0.8 1-2 0-0.8-0.5-1.3-0.5-0.5-1.4-0.8-0.9-0.4-2.1-0.7l-0.7-0.1q-2-0.5-3.5-1.1-1.4-0.7-2.2-1.9-0.8-1.1-0.8-2.9 0-1.8 0.9-3.1 0.8-1.3 2.4-2 1.6-0.7 3.7-0.7 2.1 0 3.8 0.7 1.6 0.8 2.6 2.2 0.9 1.4 0.9 3.6v0.8h-3.7v-0.8q0-1.2-0.4-1.9-0.4-0.7-1.3-1-0.8-0.3-1.9-0.3-1.7 0-2.5 0.6-0.8 0.7-0.8 1.8 0 0.7 0.4 1.2 0.4 0.5 1.1 0.9 0.8 0.3 2 0.6l0.6 0.1q2.1 0.4 3.7 1.2 1.6 0.7 2.5 1.8 0.8 1.2 0.8 3 0 1.8-0.9 3.2-0.9 1.3-2.6 2.1-1.7 0.8-4 0.8zm9.6-0.4v-14h3.5v1.8h0.5q0.3-0.7 1.3-1.4 0.9-0.7 2.8-0.7 1.6 0 2.8 0.8 1.3 0.7 2 2.1 0.7 1.3 0.7 3v8.4h-3.6v-8.1q0-1.6-0.8-2.4-0.8-0.8-2.2-0.8-1.6 0-2.6 1.1-0.9 1.1-0.9 3.1v7.1zm21 0.4q-1.5 0-2.7-0.5-1.2-0.6-1.9-1.5-0.7-1.1-0.7-2.5 0-1.4 0.7-2.4 0.7-1 1.9-1.5 1.3-0.5 2.8-0.5h3.9v-0.8q0-1-0.6-1.6-0.7-0.6-2-0.6-1.3 0-2 0.6-0.6 0.6-0.8 1.5l-3.3-1.1q0.3-1 1.1-1.9 0.7-0.9 2-1.5 1.2-0.5 3-0.5 2.8 0 4.4 1.4 1.6 1.4 1.6 4v5.2q0 0.9 0.8 0.9h1.2v2.9h-2.4q-1.1 0-1.7-0.5-0.7-0.5-0.7-1.4h-0.6q-0.1 0.3-0.5 0.9-0.4 0.5-1.2 1-0.9 0.4-2.3 0.4zm0.6-2.9q1.5 0 2.4-0.8 1-0.9 1-2.2v-0.3h-3.6q-1 0-1.6 0.4-0.5 0.4-0.5 1.2 0 0.8 0.6 1.2 0.6 0.5 1.7 0.5zm10.5 8.2v-19.7h3.5v1.7h0.5q0.5-0.8 1.5-1.5 1-0.6 2.9-0.6 1.7 0 3.2 0.8 1.4 0.8 2.3 2.5 0.9 1.6 0.9 3.9v0.4q0 2.3-0.9 3.9-0.9 1.6-2.3 2.5-1.5 0.8-3.2 0.8-1.2 0-2.1-0.3-0.9-0.3-1.4-0.8-0.5-0.4-0.8-0.9h-0.5v7.3zm7.3-8.4q1.7 0 2.8-1.1 1.1-1 1.1-3.1v-0.3q0-2-1.1-3-1.1-1.1-2.8-1.1-1.6 0-2.7 1.1-1.1 1-1.1 3v0.3q0 2.1 1.1 3.1 1.1 1.1 2.7 1.1zm9.2-4.3v-0.4q0-2.2 0.9-3.8 0.8-1.6 2.3-2.4 1.4-0.8 3.2-0.8 1.9 0 2.9 0.7 1 0.6 1.4 1.4h0.5v-1.7h3.5v16.5q0 1.4-0.8 2.3-0.9 0.9-2.3 0.9h-9.4v-3.2h8.2q0.8 0 0.8-0.8v-3.7h-0.5q-0.3 0.5-0.8 1-0.5 0.4-1.4 0.7-0.8 0.4-2.1 0.4-1.8 0-3.2-0.9-1.5-0.8-2.3-2.4-0.9-1.6-0.9-3.8zm7.4 3.9q1.6 0 2.7-1 1.1-1 1.1-2.9v-0.3q0-1.9-1.1-3-1-1-2.7-1-1.7 0-2.8 1-1.1 1.1-1.1 3v0.3q0 1.9 1.1 2.9 1.1 1 2.8 1zm10.4 3.1v-14h3.5v1.6h0.6q0.3-0.9 1-1.3 0.7-0.4 1.7-0.4h1.7v3.2h-1.8q-1.3 0-2.2 0.7-0.9 0.7-0.9 2.2v8zm14.4 0.4q-1.5 0-2.7-0.5-1.2-0.6-1.9-1.5-0.7-1.1-0.7-2.5 0-1.4 0.7-2.4 0.7-1 1.9-1.5 1.3-0.5 2.9-0.5h3.8v-0.8q0-1-0.6-1.6-0.6-0.6-2-0.6-1.3 0-2 0.6-0.6 0.6-0.8 1.5l-3.3-1.1q0.3-1 1.1-1.9 0.7-0.9 2-1.5 1.3-0.5 3.1-0.5 2.7 0 4.3 1.4 1.7 1.4 1.7 4v5.2q0 0.9 0.7 0.9h1.2v2.9h-2.4q-1 0-1.7-0.5-0.7-0.5-0.7-1.4h-0.5q-0.2 0.3-0.5 0.9-0.4 0.5-1.3 1-0.8 0.4-2.3 0.4zm0.6-2.9q1.5 0 2.4-0.8 1-0.9 1-2.2v-0.3h-3.6q-1 0-1.5 0.4-0.6 0.4-0.6 1.2 0 0.8 0.6 1.2 0.6 0.5 1.7 0.5zm10.5 2.5v-14h3.5v1.5h0.5q0.4-0.7 1.3-1.2 0.8-0.6 2.2-0.6 1.5 0 2.4 0.6 0.9 0.6 1.4 1.5h0.5q0.5-0.9 1.4-1.5 0.8-0.6 2.4-0.6 1.3 0 2.4 0.6 1.1 0.6 1.7 1.7 0.6 1.1 0.6 2.8v9.2h-3.5v-9q0-1.1-0.6-1.7-0.6-0.6-1.7-0.6-1.2 0-1.9 0.8-0.6 0.8-0.6 2.2v8.3h-3.6v-9q0-1.1-0.6-1.7-0.6-0.6-1.7-0.6-1.2 0-1.9 0.8-0.6 0.8-0.6 2.2v8.3z"/></svg>
